styles/emoji-one/1f1ec-1f1ec.svg

<svg xmlns="http://www.w3.org/2000/svg" viewBox="0 0 64 64" enable-background="new 0 0 64 64"><path fill="#f5f5f5" d="M37.969,2.601H26.032C14.264,4.978,4.989,14.235,2.602,26v11.998c2.388,11.766,11.662,21.023,23.431,23.4
		H38c11.764-2.387,21.022-11.662,23.399-23.43V26C59.012,14.235,49.737,4.978,37.969,2.601z"/><path fill="#ed4c5c" d="m38 25.999v-23.398c-1.938-.395-3.945-.602-6-.602s-4.061.207-6 .602v23.398h-23.398c-.394 1.939-.602 3.945-.602 6 0 2.056.208 4.062.602 6h23.398v23.398c1.939.395 3.945.602 6 .602s4.062-.207 6-.602v-23.398h23.399c.394-1.939.601-3.945.601-6 0-2.055-.207-4.061-.601-6h-23.399"/><path fill="#ffce31" d="m52 29.5h-17.5v-17.5l2.5-2.5h-10l2.5 2.5v17.5h-17.5l-2.5-2.5v10l2.5-2.5h17.5v17.5l-2.5 2.5h10l-2.5-2.5v-17.5h17.5l2.5 2.5v-10z"/></svg>

<svg xmlns="http://www.w3.org/2000/svg" viewBox="0 0 64 64"><path fill="#f5f5f5" d="M37.969 2.601H26.032C14.264 4.978 4.989 14.235 2.602 26v11.998c2.388 11.766 11.662 21.023 23.431 23.4H38c11.764-2.387 21.022-11.662 23.399-23.43V26C59.012 14.235 49.737 4.978 37.969 2.601z"/><path fill="#ed4c5c" d="M38 25.999V2.601c-1.938-.395-3.945-.602-6-.602s-4.061.207-6 .602v23.398H2.602a30.104 30.104 0 0 0-.602 6c0 2.056.208 4.062.602 6H26v23.398c1.939.395 3.945.602 6 .602s4.062-.207 6-.602V37.999h23.399c.394-1.939.601-3.945.601-6s-.207-4.061-.601-6H38"/><path fill="#ffce31" d="M52 29.5H34.5V12L37 9.5H27l2.5 2.5v17.5H12L9.5 27v10l2.5-2.5h17.5V52L27 54.5h10L34.5 52V34.5H52l2.5 2.5V27z"/></svg>
